!!!OTL: Der Weinkenner.
!!!ARE: Europa, Mitteleuropa, Deutschland
!!!SCT: A0338
!!!TXL: @@DE
!!!YEM: Copyright 1995, estate of Helmut Schaffrath.
**kern	**text
!! Mixed meters:  4/1; 2/1
*M4/1	*
*met(c|)	*
*clefC3	*
*k[b-]	*
*F:ion	*
=1	=1
!LO:TX:a:t=jon. F. mit Schluß auf der Quinte.	!
{0F	Ʒů
1A	Lau-
1B-	-den-
=2	=2
1c	-berg
1c	nicht
1d	weit
1d	vom
=3	=3
0c	Rein,
1r}	.
{1f	als
=4	=4
1e	ich
1d	es
1c	hab
1B-	ver-
=5	=5
1A	-nom-
2G	.
1A	.
4G	.
4F	.
1G	.
=6	=6
0F	-men,
0r}	.
=7	=
{0F	Da
1A	trinckt
1B-	man
=8	=2
1c	vil
1c	der
1d	gů-
1d	-ten
=9	=3
0c	wein,
1r}	.
{1f	wie
=10	=4
1e	ſie
1d	ʒů
1c	eym
1B-	ſind
=11	=5
1A	kom-
2G	.
1A	.
4G	.
4F	.
1G	.
=12	=6
0F	-men.
1r}	.
{1c	Mit
=13	=7
1A	gů-
1B-	-ter
1c	gſellſchafft
1d	.
=14	=14
*lig	*
2c	tag
1f	.
*Xlig	*
2e	vnd
0f	nacht,
=15	=15
1r}	.
{1f	ganʒ
1c	auß
1d	und
=16	=16
1.A	halb
2G	in
*lig	*
2A	groſ-
2B-	.
*Xlig	*
1G	-ſem
=17	=17
*M2/1	*
0F	bracht,
=18	=18
*M4/1	*
1r}	.
{1c	durch
1c	freundes
1c	.
=19	=19
1G	můt
1B-	ein
1B-	je-
1B-	-der
=20	=20
0A	thůt
1r}	.
{1c	dem
=21	=21
1f	her-
2e	-ren
1d	ʒů
2c	ge-
1B-	-fal-
=22	=22
0A	-len,
1r}	.
{1A	ſich
=23	=23
1c	hal-
1c	-ten
1A	wol
1A	recht
=24	=24
1c	wie
1c	man
0F	ſol,
=25	=25
1r}	.
{1f	ſingt
1e	dann
1d	mit
=26	=26
1g	ho-
2f	-hem
1g	ſchal-
4f	.
4e	.
1d	.
=27	=27
00cll}	-le.
==	==
!!!GTL: Trink. und Zechlieder, incl. Fastnacht- u. Martinslieder
!!!AGN: Romanze, Ballade, Lied, Trinklied
!! Reutterliedlein 1535 No. 4
!!!ONB: ESAC (Essen Associative Code) Database: ALTDEU
!!!AMT: irregular
!!!AIN: vox
!!!EED: Helmut Schaffrath
!!!EEV: 1.0
!!!RDF**kern: l = terminal long
!!!AMD: Ionian
!!!URL-scan: https://rosdok.uni-rostock.de/mcrviewer/recordIdentifier/rosdok_ppn738218359/iview2/phys_0484.iview2?x=-495.6391625615763&y=820.4054187303409&scale=0.4629418472063854&rotation=0&layout=singlePageLayout&logicalDiv=log_0013
!!!ENC: Anna Maria Matuszewska
!!!EEV: 2024/13/03
*-	*-
